X: 10817
T: Drakskeppet
R: reel
M: 4/4
K: Edorian
|:B2 AG E3 E|GG AB c2 dc|B2 AG EE GA|BA AG EE GA|
B2 AG E3 E|GG AB c2 dc|B2 AG EE GA|BA AG E2 =FE:|
|:D2 d2 dc A2|dc de dc A2|D2 d2 dc AB|=c2 c2 cB GE|
D2 d2 dc A2|dc de dc AB|=c2 c2 cB AG|B2 AG A4:|

